resources/svg/phone.svg

<svg xmlns="http://www.w3.org/2000/svg" viewBox="0 0 24 24" fill="currentColor"><path fill="none" stroke="currentColor" stroke-width="2" d="M6.375,2 C5,2 3,3.5 2.5,4.5 C1.78539513,5.92920973 1.9033374,6.49067969 2.375,8 C3,10 4.83244154,13.545116 7.375,16 C11,19.5 14.375,21 15.875,21.5 C17.375,22 19,21.5 20,20.5 C21,19.5 22,18.5 20.875,17 C20.077805,15.9370734 18.9164827,14.7082413 17.5,14 C16.2120164,13.3560082 15.444427,13.5904184 15,14.5 C14.7543142,15.0028302 14.6780041,15.9659877 14.5,16.5 C14.2754227,17.173732 13.375,17 12.375,16.5 C11.4176235,16.0213117 9,14 7,11 C5.76086515,9.14129772 7.74150655,9.12924672 9,8.5 C10,8 10.3099909,6.84998476 9.5,5.5 C8,3 7.5,2 6.375,2 Z"/></svg>

<svg viewBox="0 0 24 24"><path fill="none" stroke="currentColor" stroke-width="2" d="M6.375 2C5 2 3 3.5 2.5 4.5c-.715 1.43-.597 1.99-.125 3.5c.625 2 2.457 5.545 5 8c3.625 3.5 7 5 8.5 5.5s3.125 0 4.125-1s2-2 .875-3.5c-.797-1.063-1.959-2.292-3.375-3c-1.288-.644-2.056-.41-2.5.5c-.246.503-.322 1.466-.5 2c-.225.674-1.125.5-2.125 0C11.418 16.021 9 14 7 11c-1.24-1.859.742-1.87 2-2.5c1-.5 1.31-1.65.5-3C8 3 7.5 2 6.375 2z"/></svg>
